Documents/Basics/VertexShaderTwoAttributes.svg

<?xml version="1.0" encoding="UTF-8" standalone="no"?>
<!-- Created with Inkscape (http://www.inkscape.org/) -->

<svg
   xmlns:dc="http://purl.org/dc/elements/1.1/"
   xmlns:cc="http://creativecommons.org/ns#"
   xmlns:rdf="http://www.w3.org/1999/02/22-rdf-syntax-ns#"
   xmlns:svg="http://www.w3.org/2000/svg"
   xmlns="http://www.w3.org/2000/svg"
   xmlns:xlink="http://www.w3.org/1999/xlink"
   version="1.2"
   width="475"
   height="375"
   id="svg2"
   style="fill:none;stroke:none">
  <metadata
     id="metadata36">
    <rdf:RDF>
      <cc:Work
         rdf:about="">
        <dc:format>image/svg+xml</dc:format>
        <dc:type
           rdf:resource="http://purl.org/dc/dcmitype/StillImage" />
        <dc:title></dc:title>
      </cc:Work>
    </rdf:RDF>
  </metadata>
  <defs
     id="defs34" />
  <g
     id="layer1">
    <path
       d="m 247,60.87021 0,0 c 0,-7.98065 6.4696,-14.45026 14.45026,-14.45026 l 170.56406,0 c 3.8324,0 7.50787,1.52243 10.2178,4.23238 2.71,2.70996 4.23245,6.38544 4.23245,10.21788 l 0,52.98923 c 0,7.98068 -6.46961,14.45028 -14.45025,14.45028 l -170.56406,0 C 253.4696,128.30972 247,121.84012 247,113.85944 z"
       id="path4"
       style="fill:#efecfd;fill-opacity:1;stroke:#000000;stroke-width:1;stroke-linecap:butt;stroke-linejoin:round;stroke-miterlimit:10;stroke-dasharray:none" />
    <path
       d="m 247,160.50538 0,0 c 0,-7.98066 6.46961,-14.45027 14.45027,-14.45027 l 170.56405,0 c 3.83241,0 7.50787,1.52243 10.21781,4.23238 2.70999,2.70996 4.23245,6.38544 4.23245,10.21789 l 0,52.98922 c 0,7.98069 -6.46961,14.45028 -14.45026,14.45028 l -170.56405,0 C 253.46961,227.94488 247,221.47528 247,213.4946 z"
       id="path4-4"
       style="fill:#efecfd;fill-opacity:1;stroke:#000000;stroke-width:1;stroke-linecap:butt;stroke-linejoin:round;stroke-miterlimit:10;stroke-dasharray:none" />
    <path
       d="m 247,256.50538 0,0 c 0,-7.98066 6.46961,-14.45027 14.45027,-14.45027 l 170.56405,0 c 3.83241,0 7.50787,1.52243 10.21781,4.23238 2.70999,2.70996 4.23245,6.38544 4.23245,10.21789 l 0,52.98922 c 0,7.98068 -6.46961,14.45028 -14.45026,14.45028 l -170.56406,0 C 253.46961,323.94488 247,317.47528 247,309.4946 z"
       id="path4-2"
       style="fill:#efecfd;fill-opacity:1;stroke:#000000;stroke-width:1;stroke-linecap:butt;stroke-linejoin:round;stroke-miterlimit:10;stroke-dasharray:none" />
    <path
       d="m 23,49.204746 83.40157,0 0,35.795254 L 23,85 z"
       id="path16"
       style="fill:#d2fff1;fill-opacity:1;stroke:#000000;stroke-width:0.73229474;stroke-linecap:butt;stroke-linejoin:round;stroke-miterlimit:10;stroke-dasharray:none" />
    <path
       d="m 23,85 83.40158,0 0,35.79526 -83.40158,0 z"
       id="path16-0"
       style="fill:#d2fff1;fill-opacity:1;stroke:#000000;stroke-width:0.73229474;stroke-linecap:butt;stroke-linejoin:round;stroke-miterlimit:10;stroke-dasharray:none" />
    <path
       d="m 23,121.10237 83.40158,0 0,35.79526 -83.40158,0 z"
       id="path16-0-1"
       style="fill:#d2fff1;fill-opacity:1;stroke:#000000;stroke-width:0.73229474;stroke-linecap:butt;stroke-linejoin:round;stroke-miterlimit:10;stroke-dasharray:none" />
    <path
       d="m 23,157.10479 83.40157,0 0,35.79525 -83.40157,0 z"
       id="path16-1"
       style="fill:#ffa975;fill-opacity:1;stroke:#000000;stroke-width:0.73229474;stroke-linecap:butt;stroke-linejoin:round;stroke-miterlimit:10;stroke-dasharray:none" />
    <path
       d="m 23,192.90004 83.40158,0 0,35.79526 -83.40158,0 z"
       id="path16-0-7"
       style="fill:#ffa975;fill-opacity:1;stroke:#000000;stroke-width:0.73229474;stroke-linecap:butt;stroke-linejoin:round;stroke-miterlimit:10;stroke-dasharray:none" />
    <path
       d="m 23,229.00241 83.40158,0 0,35.79526 -83.40158,0 z"
       id="path16-0-1-4"
       style="fill:#ffa975;fill-opacity:1;stroke:#000000;stroke-width:0.73229474;stroke-linecap:butt;stroke-linejoin:round;stroke-miterlimit:10;stroke-dasharray:none" />
  </g>
  <g
     id="layer2">
    <text
       x="13"
       y="39"
       id="text4042"
       xml:space="preserve"
       style="font-size:20px;font-style:normal;font-variant:normal;font-weight:normal;font-stretch:normal;text-align:start;line-height:125%;writing-mode:lr-tb;text-anchor:start;fill:#000000;fill-opacity:1;stroke:none;font-family:Serif;-inkscape-font-specification:Serif"><tspan
         x="13"
         y="39"
         id="tspan4044"><tspan
           x="13"
           y="39"
           id="tspan4046">Buffer Object</tspan></tspan></text>
    <text
       x="284"
       y="39.000004"
       id="text4066"
       xml:space="preserve"
       style="font-size:20px;font-style:normal;font-variant:normal;font-weight:normal;font-stretch:normal;text-align:start;line-height:125%;writing-mode:lr-tb;text-anchor:start;fill:#000000;fill-opacity:1;stroke:none;font-family:Serif;-inkscape-font-specification:Serif"><tspan
         x="284"
         y="39.000004"
         id="tspan4068"><tspan
           x="284"
           y="39.000004"
           id="tspan4070">Vertex Shaders</tspan></tspan></text>
    <text
       x="35.826771"
       y="73.420509"
       id="text4036"
       xml:space="preserve"
       style="font-size:20px;font-style:normal;font-variant:normal;font-weight:normal;font-stretch:normal;text-align:start;line-height:125%;writing-mode:lr-tb;text-anchor:start;fill:#000000;fill-opacity:1;stroke:none;font-family:Serif;-inkscape-font-specification:Serif"><tspan
         x="35.826771"
         y="73.420509"
         id="tspan4038"><tspan
           x="35.826771"
           y="73.420509"
           id="tspan4040">Index 0</tspan></tspan></text>
    <text
       x="35.826771"
       y="109.21577"
       id="text4030"
       xml:space="preserve"
       style="font-size:20px;font-style:normal;font-variant:normal;font-weight:normal;font-stretch:normal;text-align:start;line-height:125%;writing-mode:lr-tb;text-anchor:start;fill:#000000;fill-opacity:1;stroke:none;font-family:Serif;-inkscape-font-specification:Serif"><tspan
         x="35.826771"
         y="109.21577"
         id="tspan4032"><tspan
           x="35.826771"
           y="109.21577"
           id="tspan4034">Index 1</tspan></tspan></text>
    <text
       x="35.826771"
       y="145.31813"
       id="text4024"
       xml:space="preserve"
       style="font-size:20px;font-style:normal;font-variant:normal;font-weight:normal;font-stretch:normal;text-align:start;line-height:125%;writing-mode:lr-tb;text-anchor:start;fill:#000000;fill-opacity:1;stroke:none;font-family:Serif;-inkscape-font-specification:Serif"><tspan
         x="35.826771"
         y="145.31813"
         id="tspan4026"><tspan
           x="35.826771"
           y="145.31813"
           id="tspan4028">Index 2</tspan></tspan></text>
    <text
       x="260.75"
       y="70.344383"
       id="text4060"
       xml:space="preserve"
       style="font-size:20px;font-style:normal;font-variant:normal;font-weight:normal;font-stretch:normal;text-align:start;line-height:125%;writing-mode:lr-tb;text-anchor:start;fill:#00745e;fill-opacity:1;stroke:none;font-family:Serif;-inkscape-font-specification:Serif"><tspan
         x="260.75"
         y="70.344383"
         id="tspan4062"><tspan
           x="260.75"
           y="70.344383"
           id="tspan4064"
           style="fill:#00745e;fill-opacity:1">in vec4 position</tspan></tspan></text>
    <text
       x="260.75"
       y="168.97955"
       id="text4054"
       xml:space="preserve"
       style="font-size:20px;font-style:normal;font-variant:normal;font-weight:normal;font-stretch:normal;text-align:start;line-height:125%;writing-mode:lr-tb;text-anchor:start;fill:#00745e;fill-opacity:1;stroke:none;font-family:Serif;-inkscape-font-specification:Serif"><tspan
         x="260.75"
         y="168.97955"
         id="tspan4056"><tspan
           x="260.75"
           y="168.97955"
           id="tspan4058"
           style="fill:#00745e;fill-opacity:1">in vec4 position</tspan></tspan></text>
    <text
       x="260.75"
       y="266.22955"
       id="text4048"
       xml:space="preserve"
       style="font-size:20px;font-style:normal;font-variant:normal;font-weight:normal;font-stretch:normal;text-align:start;line-height:125%;writing-mode:lr-tb;text-anchor:start;fill:#00745e;fill-opacity:1;stroke:none;font-family:Serif;-inkscape-font-specification:Serif"><tspan
         x="260.75"
         y="266.22955"
         id="tspan4050"><tspan
           x="260.75"
           y="266.22955"
           id="tspan4052"
           style="fill:#00745e;fill-opacity:1">in vec4 position</tspan></tspan></text>
    <path
       d="m 106,68 c 20.53861,0 28.07937,-13.597416 41.30057,-13.597416 18.59259,0.516592 46.78578,7.078799 65.43463,7.362217 C 231.83848,62.055125 239.29894,65 258,65"
       id="path3912"
       style="fill:none;stroke:#00745e;stroke-width:1px;stroke-linecap:butt;stroke-linejoin:miter;stroke-opacity:1" />
    <path
       d="m 106.5,102.5 c 29.39782,0 58.60756,14.24592 77.6668,30.75 34.14983,29.57157 30.02055,31.10355 73.8332,30.75"
       id="path3914"
       style="fill:none;stroke:#00745e;stroke-width:1px;stroke-linecap:butt;stroke-linejoin:miter;stroke-opacity:1" />
    <path
       d="m 106.06602,138.47278 c 38.18376,-1.06066 49.49747,12.72792 64.34672,51.97235 14.84924,39.24442 40.9774,70.71068 85.91347,70.71068"
       id="path3916"
       style="fill:none;stroke:#00745e;stroke-width:1px;stroke-linecap:butt;stroke-linejoin:miter;stroke-opacity:1" />
    <text
       x="35.826771"
       y="181.32056"
       id="text4036-0"
       xml:space="preserve"
       style="font-size:20px;font-style:normal;font-variant:normal;font-weight:normal;font-stretch:normal;text-align:start;line-height:125%;writing-mode:lr-tb;text-anchor:start;fill:#000000;fill-opacity:1;stroke:none;font-family:Serif;-inkscape-font-specification:Serif"><tspan
         x="35.826771"
         y="181.32056"
         id="tspan4038-9"><tspan
           x="35.826771"
           y="181.32056"
           id="tspan4040-4">Index 0</tspan></tspan></text>
    <text
       x="35.826771"
       y="217.11581"
       id="text4030-8"
       xml:space="preserve"
       style="font-size:20px;font-style:normal;font-variant:normal;font-weight:normal;font-stretch:normal;text-align:start;line-height:125%;writing-mode:lr-tb;text-anchor:start;fill:#000000;fill-opacity:1;stroke:none;font-family:Serif;-inkscape-font-specification:Serif"><tspan
         x="35.826771"
         y="217.11581"
         id="tspan4032-8"><tspan
           x="35.826771"
           y="217.11581"
           id="tspan4034-2">Index 1</tspan></tspan></text>
    <text
       x="35.826771"
       y="253.21817"
       id="text4024-4"
       xml:space="preserve"
       style="font-size:20px;font-style:normal;font-variant:normal;font-weight:normal;font-stretch:normal;text-align:start;line-height:125%;writing-mode:lr-tb;text-anchor:start;fill:#000000;fill-opacity:1;stroke:none;font-family:Serif;-inkscape-font-specification:Serif"><tspan
         x="35.826771"
         y="253.21817"
         id="tspan4026-5"><tspan
           x="35.826771"
           y="253.21817"
           id="tspan4028-5">Index 2</tspan></tspan></text>
    <text
       x="260.75"
       y="291.59439"
       id="text3042"
       xml:space="preserve"
       style="font-size:20px;font-style:normal;font-variant:normal;font-weight:normal;font-stretch:normal;text-align:start;line-height:125%;letter-spacing:0px;word-spacing:0px;writing-mode:lr-tb;text-anchor:start;fill:#a46d4a;fill-opacity:1;stroke:none;font-family:Serif;-inkscape-font-specification:Serif"><tspan
         x="260.75"
         y="291.59439"
         id="tspan3044"><tspan
           x="260.75"
           y="291.59439"
           id="tspan3046">in vec4 color</tspan></tspan></text>
	<use
       transform="translate(0,-98.75)"
       id="use3812"
       x="0"
       y="0"
       width="475"
       height="375"
       xlink:href="#text3042" />
	<use
       transform="translate(0,-196.75)"
       id="use3812"
       x="0"
       y="0"
       width="475"
       height="375"
       xlink:href="#text3042" />
    <path
       d="M 106.25,176 C 178,176 181,90.5 256,90.5"
       id="path3814"
       style="fill:none;stroke:#a46d4a;stroke-width:1px;stroke-linecap:butt;stroke-linejoin:miter;stroke-opacity:1" />
    <path
       d="m 106.75,211.25 c 65,0 95.5,-21.75 149.25,-21.75"
       id="path3816"
       style="fill:none;stroke:#a46d4a;stroke-width:1px;stroke-linecap:butt;stroke-linejoin:miter;stroke-opacity:1" />
    <path
       d="m 106.5,248.5 c 68.75,0 96,38.5 148.5,38.5"
       id="path3818"
       style="fill:none;stroke:#a46d4a;stroke-width:1px;stroke-linecap:butt;stroke-linejoin:miter;stroke-opacity:1" />
  </g>
</svg>

<?xml version="1.0" encoding="UTF-8" standalone="no"?>
<!DOCTYPE svg PUBLIC "-//W3C//DTD SVG 1.1//EN" "http://www.w3.org/Graphics/SVG/1.1/DTD/svg11.dtd">
<svg width="100%" height="100%" viewBox="0 0 475 375" version="1.1" xmlns="http://www.w3.org/2000/svg" xmlns:xlink="http://www.w3.org/1999/xlink" xml:space="preserve" xmlns:serif="http://www.serif.com/" style="fill-rule:evenodd;clip-rule:evenodd;stroke-linejoin:round;stroke-miterlimit:10;">
    <g id="layer1">
        <path id="path4" d="M247,60.87C247,52.89 253.47,46.42 261.45,46.42L432.014,46.42C435.847,46.42 439.522,47.942 442.232,50.652C444.942,53.362 446.465,57.038 446.465,60.87L446.465,113.859C446.465,121.84 439.995,128.31 432.014,128.31L261.45,128.31C253.47,128.31 247,121.84 247,113.859L247,60.87Z" style="fill:rgb(239,236,253);fill-rule:nonzero;stroke:black;stroke-width:1px;"/>
        <path id="path4-4" d="M247,160.505C247,152.525 253.47,146.055 261.45,146.055L432.014,146.055C435.847,146.055 439.522,147.578 442.232,150.287C444.942,152.997 446.465,156.673 446.465,160.505L446.465,213.495C446.465,221.475 439.995,227.945 432.014,227.945L261.45,227.945C253.47,227.945 247,221.475 247,213.495L247,160.505Z" style="fill:rgb(239,236,253);fill-rule:nonzero;stroke:black;stroke-width:1px;"/>
        <path id="path4-2" d="M247,256.505C247,248.525 253.47,242.055 261.45,242.055L432.014,242.055C435.847,242.055 439.522,243.578 442.232,246.287C444.942,248.997 446.465,252.673 446.465,256.505L446.465,309.495C446.465,317.475 439.995,323.945 432.014,323.945L261.45,323.945C253.47,323.945 247,317.475 247,309.495L247,256.505Z" style="fill:rgb(239,236,253);fill-rule:nonzero;stroke:black;stroke-width:1px;"/>
        <rect id="path16" x="23" y="49.205" width="83.402" height="35.795" style="fill:rgb(210,255,241);fill-rule:nonzero;stroke:black;stroke-width:0.73px;"/>
        <rect id="path16-0" x="23" y="85" width="83.402" height="35.795" style="fill:rgb(210,255,241);fill-rule:nonzero;stroke:black;stroke-width:0.73px;"/>
        <rect id="path16-0-1" x="23" y="121.102" width="83.402" height="35.795" style="fill:rgb(210,255,241);fill-rule:nonzero;stroke:black;stroke-width:0.73px;"/>
        <rect id="path16-1" x="23" y="157.105" width="83.402" height="35.795" style="fill:rgb(255,169,117);fill-rule:nonzero;stroke:black;stroke-width:0.73px;"/>
        <rect id="path16-0-7" x="23" y="192.9" width="83.402" height="35.795" style="fill:rgb(255,169,117);fill-rule:nonzero;stroke:black;stroke-width:0.73px;"/>
        <rect id="path16-0-1-4" x="23" y="229.002" width="83.402" height="35.795" style="fill:rgb(255,169,117);fill-rule:nonzero;stroke:black;stroke-width:0.73px;"/>
    </g>
    <g id="layer2">
        <g transform="matrix(1,0,0,1,9.51857,39)">
            <text x="0.305px" y="0.474px" style="font-family:'IBMPlexSans-Regular', 'IBM Plex Sans', sans-serif;font-size:20px;">Buffer Object</text>
        </g>
        <g transform="matrix(1,0,0,1,247.694,39)">
            <text x="31.465px" y="0.474px" style="font-family:'IBMPlexSans-Regular', 'IBM Plex Sans', sans-serif;font-size:20px;">V<tspan x="43.045px " y="0.474px ">e</tspan>rte<tspan x="79.125px " y="0.474px ">x</tspan> Shaders</text>
        </g>
        <g transform="matrix(1,0,0,1,23,73.4205)">
            <text x="7.421px" y="0.474px" style="font-family:'IBMPlexSans-Regular', 'IBM Plex Sans', sans-serif;font-size:20px;">Inde<tspan x="49.121px " y="0.474px ">x</tspan> 0</text>
        </g>
        <g transform="matrix(1,0,0,1,23,109.216)">
            <text x="7.421px" y="0.474px" style="font-family:'IBMPlexSans-Regular', 'IBM Plex Sans', sans-serif;font-size:20px;">Inde<tspan x="49.121px " y="0.474px ">x</tspan> 1</text>
        </g>
        <g transform="matrix(1,0,0,1,23,145.318)">
            <text x="7.421px" y="0.474px" style="font-family:'IBMPlexSans-Regular', 'IBM Plex Sans', sans-serif;font-size:20px;">Inde<tspan x="49.121px " y="0.474px ">x</tspan> 2</text>
        </g>
        <g transform="matrix(1,0,0,1,260.75,70.3444)">
            <text x="0px" y="0.474px" style="font-family:'IBMPlexSans-Regular', 'IBM Plex Sans', sans-serif;font-size:20px;fill:rgb(0,116,94);">in v<tspan x="30.76px " y="0.474px ">e</tspan>c4 position</text>
        </g>
        <g transform="matrix(1,0,0,1,260.75,168.98)">
            <text x="0px" y="0.474px" style="font-family:'IBMPlexSans-Regular', 'IBM Plex Sans', sans-serif;font-size:20px;fill:rgb(0,116,94);">in v<tspan x="30.76px " y="0.474px ">e</tspan>c4 position</text>
        </g>
        <g transform="matrix(1,0,0,1,260.75,266.23)">
            <text x="0px" y="0.474px" style="font-family:'IBMPlexSans-Regular', 'IBM Plex Sans', sans-serif;font-size:20px;fill:rgb(0,116,94);">in v<tspan x="30.76px " y="0.474px ">e</tspan>c4 position</text>
        </g>
        <path id="path3912" d="M106,68C126.539,68 171.706,58.995 190.355,59.278C209.458,59.568 239.299,65 258,65" style="fill:none;fill-rule:nonzero;stroke:rgb(0,116,94);stroke-width:1px;stroke-linejoin:miter;stroke-miterlimit:4;"/>
        <path id="path3914" d="M106.5,102.5C135.898,102.5 165.108,116.746 184.167,133.25C218.317,162.822 214.187,164.354 258,164" style="fill:none;fill-rule:nonzero;stroke:rgb(0,116,94);stroke-width:1px;stroke-linejoin:miter;stroke-miterlimit:4;"/>
        <path id="path3916" d="M106.066,138.473C144.25,137.412 155.563,151.201 170.413,190.445C185.262,229.69 211.39,261.156 256.326,261.156" style="fill:none;fill-rule:nonzero;stroke:rgb(0,116,94);stroke-width:1px;stroke-linejoin:miter;stroke-miterlimit:4;"/>
        <g transform="matrix(1,0,0,1,23,181.321)">
            <text x="7.421px" y="0.474px" style="font-family:'IBMPlexSans-Regular', 'IBM Plex Sans', sans-serif;font-size:20px;">Inde<tspan x="49.121px " y="0.474px ">x</tspan> 0</text>
        </g>
        <g transform="matrix(1,0,0,1,23,217.116)">
            <text x="7.421px" y="0.474px" style="font-family:'IBMPlexSans-Regular', 'IBM Plex Sans', sans-serif;font-size:20px;">Inde<tspan x="49.121px " y="0.474px ">x</tspan> 1</text>
        </g>
        <g transform="matrix(1,0,0,1,23,253.218)">
            <text x="7.421px" y="0.474px" style="font-family:'IBMPlexSans-Regular', 'IBM Plex Sans', sans-serif;font-size:20px;">Inde<tspan x="49.121px " y="0.474px ">x</tspan> 2</text>
        </g>
        <g transform="matrix(1,0,0,1,260.75,291.594)">
            <text x="0px" y="0.474px" style="font-family:'IBMPlexSans-Regular', 'IBM Plex Sans', sans-serif;font-size:20px;fill:rgb(164,109,74);">in v<tspan x="30.76px " y="0.474px ">e</tspan>c4 c<tspan x="78.46px " y="0.474px ">o</tspan>lor</text>
        </g>
        <g transform="matrix(1,0,0,1,260.75,192.844)">
            <text x="0px" y="0.474px" style="font-family:'IBMPlexSans-Regular', 'IBM Plex Sans', sans-serif;font-size:20px;fill:rgb(164,109,74);">in v<tspan x="30.76px " y="0.474px ">e</tspan>c4 c<tspan x="78.46px " y="0.474px ">o</tspan>lor</text>
        </g>
        <g transform="matrix(1,0,0,1,260.75,94.8444)">
            <text x="0px" y="0.474px" style="font-family:'IBMPlexSans-Regular', 'IBM Plex Sans', sans-serif;font-size:20px;fill:rgb(164,109,74);">in v<tspan x="30.76px " y="0.474px ">e</tspan>c4 c<tspan x="78.46px " y="0.474px ">o</tspan>lor</text>
        </g>
        <path id="path3814" d="M106.25,176C178,176 181,90.5 256,90.5" style="fill:none;fill-rule:nonzero;stroke:rgb(164,109,74);stroke-width:1px;stroke-linejoin:miter;stroke-miterlimit:4;"/>
        <path id="path3816" d="M106.75,211.25C171.75,211.25 202.25,189.5 256,189.5" style="fill:none;fill-rule:nonzero;stroke:rgb(164,109,74);stroke-width:1px;stroke-linejoin:miter;stroke-miterlimit:4;"/>
        <path id="path3818" d="M106.5,248.5C175.25,248.5 202.5,287 255,287" style="fill:none;fill-rule:nonzero;stroke:rgb(164,109,74);stroke-width:1px;stroke-linejoin:miter;stroke-miterlimit:4;"/>
    </g>
</svg>
